svgs/stock_ticker.svg

<?xml version="1.0" encoding="UTF-8" standalone="no"?>
<!-- Created with Inkscape (http://www.inkscape.org/) -->

<svg
   version="1.1"
   id="svg2"
   width="192"
   height="192"
   viewBox="0 0 192 192"
   sodipodi:docname="stock_ticker.png"
   inkscape:export-filename="stock_ticker.svg"
   inkscape:export-xdpi="96"
   inkscape:export-ydpi="96"
   xmlns:inkscape="http://www.inkscape.org/namespaces/inkscape"
   xmlns:sodipodi="http://sodipodi.sourceforge.net/DTD/sodipodi-0.dtd"
   xmlns="http://www.w3.org/2000/svg"
   xmlns:svg="http://www.w3.org/2000/svg">
  <defs
     id="defs6" />
  <sodipodi:namedview
     id="namedview4"
     pagecolor="#ffffff"
     bordercolor="#000000"
     borderopacity="0.25"
     inkscape:showpageshadow="2"
     inkscape:pageopacity="0.0"
     inkscape:pagecheckerboard="0"
     inkscape:deskcolor="#d1d1d1"
     showgrid="false"
     showguides="true">
    <sodipodi:guide
       position="54.938602,176.03617"
       orientation="0,-1"
       id="guide239"
       inkscape:locked="false" />
    <sodipodi:guide
       position="16.107653,166.40034"
       orientation="1,0"
       id="guide241"
       inkscape:locked="false" />
  </sodipodi:namedview>
  <g
     inkscape:groupmode="layer"
     inkscape:label="Image"
     id="g8">
    <path
       style="fill:#000000;fill-opacity:0;stroke:#000000;stroke-width:12;stroke-linecap:round;stroke-linejoin:round;stroke-miterlimit:6;stroke-dasharray:none;paint-order:stroke fill markers"
       d="M 22,142.57627 H 32.701999"
       id="path958-3-6-2" />
    <path
       style="fill:#000000;fill-opacity:0;stroke:#000000;stroke-width:12;stroke-linecap:round;stroke-linejoin:round;stroke-miterlimit:6;stroke-dasharray:none;paint-order:stroke fill markers"
       d="M 22,114.71186 H 32.701999"
       id="path958-3-6-1" />
    <path
       style="fill:#000000;fill-opacity:0;stroke:#000000;stroke-width:12;stroke-linecap:round;stroke-linejoin:round;stroke-miterlimit:6;stroke-dasharray:none;paint-order:stroke fill markers"
       d="M 22,22 V 170 H 170"
       id="path306"
       sodipodi:nodetypes="ccc" />
    <path
       style="fill:#000000;fill-opacity:0;stroke:#000000;stroke-width:12;stroke-linecap:round;stroke-linejoin:round;stroke-miterlimit:6;stroke-dasharray:none;paint-order:stroke fill markers"
       d="M 21.995498,32.934057 H 32.697497"
       id="path958" />
    <path
       style="fill:#000000;fill-opacity:0;stroke:#000000;stroke-width:12;stroke-linecap:round;stroke-linejoin:round;stroke-miterlimit:6;stroke-dasharray:none;paint-order:stroke fill markers"
       d="M 21.995,60.254237 H 32.696999"
       id="path958-3" />
    <path
       style="fill:#000000;fill-opacity:0;stroke:#000000;stroke-width:12;stroke-linecap:round;stroke-linejoin:round;stroke-miterlimit:6;stroke-dasharray:none;paint-order:stroke fill markers"
       d="M 21.995,87.355932 H 32.696999"
       id="path958-3-6" />
    <circle
       style="fill:#000000;fill-opacity:0;stroke:#000000;stroke-width:12;stroke-linecap:round;stroke-linejoin:round;stroke-miterlimit:6;stroke-dasharray:none;paint-order:stroke fill markers"
       id="path1211"
       cx="58.060753"
       cy="128.69466"
       r="10.781599" />
    <circle
       style="fill:#000000;fill-opacity:0;stroke:#000000;stroke-width:12;stroke-linecap:round;stroke-linejoin:round;stroke-miterlimit:6;stroke-dasharray:none;paint-order:stroke fill markers"
       id="path1211-7"
       cx="84.277542"
       cy="76.357979"
       r="10.781599" />
    <circle
       style="fill:#000000;fill-opacity:0;stroke:#000000;stroke-width:12;stroke-linecap:round;stroke-linejoin:round;stroke-miterlimit:6;stroke-dasharray:none;paint-order:stroke fill markers"
       id="path1211-0"
       cx="127.85449"
       cy="112.75357"
       r="10.781599" />
    <circle
       style="fill:#000000;fill-opacity:0;stroke:#000000;stroke-width:12;stroke-linecap:round;stroke-linejoin:round;stroke-miterlimit:6;stroke-dasharray:none;paint-order:stroke fill markers"
       id="path1211-9"
       cx="149.45758"
       cy="39.358471"
       r="10.781599" />
    <path
       style="fill:#000000;fill-opacity:0;stroke:#000000;stroke-width:8;stroke-linecap:round;stroke-linejoin:round;stroke-miterlimit:6;stroke-dasharray:none;paint-order:stroke fill markers"
       d="M 64.380612,118.19844 78.49728,86.836496"
       id="path1266" />
    <path
       style="fill:#000000;fill-opacity:0;stroke:#000000;stroke-width:8;stroke-linecap:round;stroke-linejoin:round;stroke-miterlimit:6;stroke-dasharray:none;paint-order:stroke fill markers"
       d="m 93.577418,84.41237 24.332262,21.12388"
       id="path1268" />
    <path
       style="fill:#000000;fill-opacity:0;stroke:#000000;stroke-width:8;stroke-linecap:round;stroke-linejoin:round;stroke-miterlimit:6;stroke-dasharray:none;paint-order:stroke fill markers"
       d="M 131.57804,101.46889 147.10761,49.076319"
       id="path1270" />
  </g>
</svg>

<svg width="192" height="192" xmlns="http://www.w3.org/2000/svg"><g fill="none"><path style="fill:#000;fill-opacity:0;stroke:#000;stroke-width:12;stroke-linecap:round;stroke-linejoin:round;stroke-miterlimit:6;stroke-dasharray:none;paint-order:stroke fill markers" d="M22 142.576h10.702M22 114.712h10.702M22 22v148h148M21.995 32.934h10.702M21.995 60.254h10.702M21.995 87.356h10.702"/><circle style="fill:#000;fill-opacity:0;stroke:#000;stroke-width:12;stroke-linecap:round;stroke-linejoin:round;stroke-miterlimit:6;stroke-dasharray:none;paint-order:stroke fill markers" cx="58.061" cy="128.695" r="10.782"/><circle style="fill:#000;fill-opacity:0;stroke:#000;stroke-width:12;stroke-linecap:round;stroke-linejoin:round;stroke-miterlimit:6;stroke-dasharray:none;paint-order:stroke fill markers" cx="84.278" cy="76.358" r="10.782"/><circle style="fill:#000;fill-opacity:0;stroke:#000;stroke-width:12;stroke-linecap:round;stroke-linejoin:round;stroke-miterlimit:6;stroke-dasharray:none;paint-order:stroke fill markers" cx="127.854" cy="112.754" r="10.782"/><circle style="fill:#000;fill-opacity:0;stroke:#000;stroke-width:12;stroke-linecap:round;stroke-linejoin:round;stroke-miterlimit:6;stroke-dasharray:none;paint-order:stroke fill markers" cx="149.458" cy="39.358" r="10.782"/><path style="fill:#000;fill-opacity:0;stroke:#000;stroke-width:8;stroke-linecap:round;stroke-linejoin:round;stroke-miterlimit:6;stroke-dasharray:none;paint-order:stroke fill markers" d="m64.38 118.198 14.117-31.362M93.577 84.412l24.333 21.124M131.578 101.469l15.53-52.393"/></g></svg>
